UI/Social/SVG/heart_outline_24px.svg

<svg width="24" height="24" viewBox="0 0 24 24" fill="none" xmlns="http://www.w3.org/2000/svg">
<path d="M16.5 5C16.9545 4.98103 17.4082 5.05458 17.8335 5.21618C18.2588 5.37779 18.6469 5.62408 18.9741 5.94013C19.3014 6.25618 19.5611 6.6354 19.7374 7.0548C19.9138 7.4742 20.0031 7.92505 20 8.38C19.9879 9.05185 19.8129 9.71073 19.49 10.3C18.6836 11.6578 17.6715 12.8823 16.49 13.93C16.26 14.16 15.49 14.85 14.69 15.65L12 18.2L9.30997 15.65C8.46997 14.85 7.73997 14.16 7.50997 13.93C6.3284 12.8823 5.31639 11.6578 4.50997 10.3C4.18704 9.71073 4.01203 9.05185 3.99997 8.38C3.99687 7.92505 4.08619 7.4742 4.26253 7.0548C4.43887 6.6354 4.69854 6.25618 5.02581 5.94013C5.35308 5.62408 5.74113 5.37779 6.16642 5.21618C6.59172 5.05458 7.04541 4.98103 7.49997 5C8.2592 5.00852 9.00074 5.23029 9.63997 5.64L10.64 6.55L12 7.7L13.32 6.55L14.32 5.64C14.9707 5.22304 15.7271 5.00096 16.5 5ZM16.5 3C15.3066 2.99972 14.139 3.34722 13.14 4L12 5L10.86 4C9.86095 3.34722 8.69336 2.99972 7.49997 3C6.78235 2.97986 6.06801 3.10435 5.39951 3.36607C4.731 3.62779 4.12201 4.02137 3.60881 4.52338C3.0956 5.02539 2.68868 5.62555 2.41228 6.28812C2.13589 6.95069 1.99567 7.66211 1.99997 8.38C2.00774 9.37333 2.26202 10.3492 2.73997 11.22C3.6352 12.771 4.77292 14.1687 6.10997 15.36C6.68997 15.93 10.17 19.2 11.29 20.3L12 21L12.71 20.3C13.83 19.2 17.31 15.93 17.89 15.36C19.227 14.1687 20.3648 12.771 21.26 11.22C21.7379 10.3492 21.9922 9.37333 22 8.38C22.0043 7.66211 21.8641 6.95069 21.5877 6.28812C21.3113 5.62555 20.9043 5.02539 20.3911 4.52338C19.8779 4.02137 19.2689 3.62779 18.6004 3.36607C17.9319 3.10435 17.2176 2.97986 16.5 3Z" fill="#0F1621"/>
</svg>

<svg xmlns="http://www.w3.org/2000/svg" width="24" height="24" viewBox="0 0 24 24"><rect width="24" height="24" style="fill:none"/><path d="M16.5,5A3.36,3.36,0,0,1,20,8.38a4.15,4.15,0,0,1-.51,1.92,15.28,15.28,0,0,1-3,3.63c-.23.23-1,.92-1.8,1.72L12,18.2,9.31,15.65c-.84-.8-1.57-1.49-1.8-1.72a15.28,15.28,0,0,1-3-3.63A4.15,4.15,0,0,1,4,8.38,3.36,3.36,0,0,1,7.5,5a4.05,4.05,0,0,1,2.14.64l1,.91L12,7.7l1.32-1.15,1-.91A4.05,4.05,0,0,1,16.5,5m0-2a6.14,6.14,0,0,0-3.36,1L12,5,10.86,4A6.14,6.14,0,0,0,7.5,3,5.35,5.35,0,0,0,2,8.38a6,6,0,0,0,.74,2.84,16.78,16.78,0,0,0,3.37,4.14c.58.57,4.06,3.84,5.18,4.94L12,21l.71-.7c1.12-1.1,4.6-4.37,5.18-4.94a16.78,16.78,0,0,0,3.37-4.14A6,6,0,0,0,22,8.38,5.35,5.35,0,0,0,16.5,3Z"/></svg>
